X: 1
T: Superfly
R: reel
M: 4/4
L: 1/8
K: Bmin
|:Bf ~f2 gfeg | f3 g fedf | e3 f edce | dBBA BAFA |
Bf ~f2 gfeg | f3 g fedf | e3 f edce | dBBA B2 BA :|
|: Bcde f2 Bc | defB g2 Bc | defd agfa | gfeg fedc |
Bcde f2 Bc | defB g2 Bc | defd agfa | gfeg fedc :|


Tune 9942	Setting 20141

